X: 17857
T: Horney Ewe, The
R: barndance
M: 4/4
K: Gmajor
|:GB2A BdBG|A2F2 D2AB|c2Ac BdBG|A2G2 G4:|
|:B2BA BAGA|B2d2 e4|efeB dBAG|A2G2 G4:|

